!!!OTL: Ritter von Rosen.
!!!OTL-incipit: MEIN KNAPPE WIE KOMMST DU
!!!COM: Ges. v. H. Langer
!!!ARE: Europa, Mitteleuropa, Deutschland
!!!SCT: F0638
!!!TXL: @@DE
!!!YEM: Copyright 1995, estate of Helmut Schaffrath.
**kern	**text
*ICvox	*
*M6/8	*
*k[b-e-a-]	*
*E-:	*
{8B-	"Mein
=1	=1
8e-	Knappe,
8g	.
8b-/	wie
8e-	kommſt
8g	du
8b-/	an
=2	=2
8ee-/	Stirn
8ee-/	und
8cc/	an
4b-/}	Bruſt
{8b-/	und
=3	=3
8gL	Arm
8b-J	.
8a-	von
(8g	Blut
8f)	.
8e-	ſo
=4	=4
4.b-/	roth;
8r	.
8r}	.
{8B-	Und
=5	=5
8e-	rei-
8g	-teſt,
8b-/	als
8e-	wie
8g	in
8b-/	er-
=6	=6
8ee-/	-quick-
8ee-/	-li-
8cc/	-cher
4b-/}	Luſt,
{8b-/	als
=7	=7
8gL	gäb'
8b-J	es
8a-	nicht
(8g	Jammer
8f)	.
8e-	und
=8	=8
4.b-/	Noth?"
8r	.
8r}	.
{8b-/	"Drei
=9	=9
4b-/	Ro-
8f	-ſen,
8f	ſagt
8b-/	er,
8dd/	drei
=10	=10
4.b-/	Ro-
4f}	-ſen,
{8b-/	Die
=11	=11
4b-/	pflückt
8f	ich_aus
8f	feindli-
8b-/	.
8dd/	-chem
=12	=12
4.b-/	To-
4f}	-ſen,
{8b-/	die
=13	=13
8g	pflückt
8b-/	ich
8g	aus
8f	drohendem
8a-	.
8f	.
=14	=14
4.e-}	Tod,
{8ee-/L	.
8ddJ	.
8cc/	die
=15	=15
8b-/	pflückt
8cc/	ich
8b-/	aus
8a-	drohendem
8g	.
8f	.
=16	=16
4.e-	Tod."
8r	.
8r}	.
==	==
!!!AGN: Soldaten -, Ritter -, Helden - Lied
!!!ONB: ESAC (Essen Associative Code) Database: FINK
!!!AMT: compound duple
!!!AIN: vox
!!!EED: Helmut Schaffrath
!!!EEV: 1.0
!!Text: La Motte Fouque
!!!GTL: Soldaten- und Jaegerlieder
!!!source: Musikalischer Hausschatz der Deutschen. Eine Sammlung von über 1000 Liedern und Gesängen mit Singstimmen und Klavierbegleitung. Leipzig, Litterarisches Verlags-Haus.
!!!page: 421
!!!ENC: Anna Maria Matuszewska
!!!EEV: 2025/03/18
*-	*-
